X: 7859
T: Companion Star
R: hornpipe
M: 4/4
K: Gmajor
FGdE GBDA|d6 z B|edgf dBAB|D6 z D|
BAFG dFGB|edgf edgf|dBAB G4-|[M:2/4] G4:|
M:4/4
|:g4- gdgf|d6- d z|g4 adgf|d6 z D|
BAFG dFGB|edgf edgf|dBAB G4-|[M:2/4] G4:|

